X: 3
T:St. Adelle's Reel
M:C
L:1/8
Q:200
S:from Vivian Williams Workshop in Ellensburg
R:Reel
Z:William C. Dunlap  2001-01-17
K:G
ef|
"G"g2 {a}gf gedc| BGAF GABc|"D"dBcA BGAF|"G"GABc d2 ef|
"G"g2 {a}gf gedc| BGAF GABc|"D"dBcA BGAF|"G"G2 {A}GF G2 :|
K:D
|:FG|
"D"ABAF A2 de|fefg f2 fg|"A"afge fdec|"D"defd A2 FG|
"D"ABAF A2 de|fefg f2 fg|"A"afge fdec|"D"d2 {e}dc d2 :|
